; generated by Slic3r 1.3.0 on 2019-09-26 at 14:34:21

; external perimeters extrusion width = 0.55mm (1.85mm^3/s)
; perimeters extrusion width = 0.70mm (4.75mm^3/s)
; infill extrusion width = 0.62mm (4.22mm^3/s)
; solid infill extrusion width = 0.70mm (1.36mm^3/s)
; top infill extrusion width = 0.70mm (1.02mm^3/s)

M107
M190 S60 ; set bed temperature and wait for it to be reached
M104 S200 ; set temperature

; Filament gcode

M109 S200 ; set temperature and wait for it to be reached
G21 ; set units to millimeters
G90 ; use absolute coordinates
M82 ; use absolute distances for extrusion
G92 E0
G1 Z0.350 F4200.000
G1 E-2.00000 F2400.00000
G92 E0
G1 Z0.550 F4200.000
G1 X43.094 Y36.432 F4200.000
G1 Z0.350 F4200.000
G1 E2.00000 F2400.00000
G1 F1800
G1 X44.847 Y34.953 E2.63866
G1 X46.999 Y34.160 E3.27732
G1 X48.179 Y34.054 E3.60718
G1 X77.821 Y34.054 E11.86170
G1 X80.080 Y34.451 E12.50036
G1 X82.068 Y35.594 E13.13902
G1 X83.547 Y37.347 E13.77768
G1 X84.340 Y39.499 E14.41634
G1 X84.446 Y40.679 E14.74620
G1 X84.446 Y70.321 E23.00072
G1 X84.049 Y72.580 E23.63938
G1 X82.906 Y74.568 E24.27804
G1 X81.153 Y76.047 E24.91670
G1 X79.001 Y76.840 E25.55536
G1 X77.821 Y76.946 E25.88522
G1 X48.179 Y76.946 E34.13974
G1 X45.920 Y76.549 E34.77840
G1 X43.932 Y75.406 E35.41706
G1 X42.453 Y73.653 E36.05572
G1 X41.660 Y71.501 E36.69438
G1 X41.554 Y70.321 E37.02424
G1 X41.554 Y40.679 E45.27876
G1 X41.951 Y38.420 E45.91742
G1 X43.057 Y36.497 E46.53520
G1 E44.53520 F2400.00000
G92 E0
G1 Z0.550 F4200.000
G1 X77.471 Y69.971 F4200.000
G1 Z0.350 F4200.000
G1 E2.00000 F2400.00000
G1 F1800
G1 X48.529 Y69.971 E10.05959
G1 X48.529 Y41.029 E18.11918
G1 X77.471 Y41.029 E26.17876
G1 X77.471 Y69.896 E34.21747
G1 X76.780 Y69.413 F4200.000
G1 F1800
G1 X76.913 Y69.280 E34.27029
G1 X76.913 Y68.387 E34.52175
G1 X75.887 Y69.413 E34.93018
G1 X74.993 Y69.413 E35.18164
G1 X76.913 Y67.493 E35.94568
G1 X76.913 Y66.600 E36.19713
G1 X74.100 Y69.413 E37.31679
G1 X73.207 Y69.413 E37.56824
G1 X76.913 Y65.707 E39.04351
G1 X76.913 Y64.813 E39.29496
G1 X72.313 Y69.413 E41.12583
G1 X71.420 Y69.413 E41.37729
G1 X76.913 Y63.920 E43.56377
G1 X76.913 Y63.027 E43.81523
G1 X70.527 Y69.413 E46.35732
G1 X69.633 Y69.413 E46.60877
G1 X76.913 Y62.133 E49.50648
G1 X76.913 Y61.240 E49.75793
G1 X68.740 Y69.413 E53.01124
G1 X67.847 Y69.413 E53.26269
G1 X76.913 Y60.347 E56.87162
G1 X76.913 Y59.454 E57.12307
G1 X66.954 Y69.413 E61.08760
G1 X66.060 Y69.413 E61.33906
G1 X76.913 Y58.560 E65.65920
G1 X76.913 Y57.667 E65.91065
G1 X65.167 Y69.413 E70.58640
G1 X64.274 Y69.413 E70.83786
G1 X76.913 Y56.774 E75.86922
G1 X76.913 Y55.880 E76.12067
G1 X63.380 Y69.413 E81.50764
G1 X62.487 Y69.413 E81.75909
G1 X76.913 Y54.987 E87.50167
G1 X76.913 Y54.094 E87.75313
G1 X61.594 Y69.413 E93.85132
G1 X60.700 Y69.413 E94.10277
G1 X76.913 Y53.200 E100.55657
G1 X76.913 Y52.307 E100.80802
G1 X59.807 Y69.413 E107.61743
G1 X58.914 Y69.413 E107.86888
G1 X76.913 Y51.414 E115.03390
G1 X76.913 Y50.520 E115.28536
G1 X58.020 Y69.413 E122.80598
G1 X57.127 Y69.413 E123.05744
G1 X76.913 Y49.627 E130.93367
G1 X76.913 Y48.734 E131.18513
G1 X56.234 Y69.413 E139.41697
G1 X55.341 Y69.413 E139.66843
G1 X76.913 Y47.841 E148.25588
G1 X76.913 Y46.947 E148.50734
G1 X54.447 Y69.413 E157.45040
G1 X53.554 Y69.413 E157.70186
G1 X76.913 Y46.054 E167.00053
G1 X76.913 Y45.161 E167.25199
G1 X52.661 Y69.413 E176.90627
G1 X51.767 Y69.413 E177.15773
G1 X76.913 Y44.267 E187.16762
G1 X76.913 Y43.374 E187.41908
G1 X50.874 Y69.413 E197.78458
G1 X49.981 Y69.413 E198.03604
G1 X76.913 Y42.481 E208.75715
G1 X76.913 Y41.587 E209.00860
G1 X49.087 Y69.413 E220.08533
G1 X49.087 Y68.519 E220.33678
G1 X76.019 Y41.587 E231.05790
G1 X75.126 Y41.587 E231.30935
G1 X49.087 Y67.626 E241.67486
G1 X49.087 Y66.733 E241.92631
G1 X74.233 Y41.587 E251.93621
G1 X73.339 Y41.587 E252.18766
G1 X49.087 Y65.839 E261.84195
G1 X49.087 Y64.946 E262.09340
G1 X72.446 Y41.587 E271.39208
G1 X71.553 Y41.587 E271.64353
G1 X49.087 Y64.053 E280.58660
G1 X49.087 Y63.159 E280.83805
G1 X70.659 Y41.587 E289.42551
G1 X69.766 Y41.587 E289.67697
G1 X49.087 Y62.266 E297.90881
G1 X49.087 Y61.373 E298.16027
G1 X68.873 Y41.587 E306.03651
G1 X67.980 Y41.587 E306.28796
G1 X49.087 Y60.480 E313.80859
G1 X49.087 Y59.586 E314.06004
G1 X67.086 Y41.587 E321.22506
G1 X66.193 Y41.587 E321.47652
G1 X49.087 Y58.693 E328.28593
G1 X49.087 Y57.800 E328.53738
G1 X65.300 Y41.587 E334.99118
G1 X64.406 Y41.587 E335.24264
G1 X49.087 Y56.906 E341.34083
G1 X49.087 Y56.013 E341.59228
G1 X63.513 Y41.587 E347.33486
G1 X62.620 Y41.587 E347.58631
G1 X49.087 Y55.120 E352.97329
G1 X49.087 Y54.226 E353.22474
G1 X61.726 Y41.587 E358.25610
G1 X60.833 Y41.587 E358.50756
G1 X49.087 Y53.333 E363.18331
G1 X49.087 Y52.440 E363.43476
G1 X59.940 Y41.587 E367.75490
G1 X59.047 Y41.587 E368.00636
G1 X49.087 Y51.546 E371.97089
G1 X49.087 Y50.653 E372.22235
G1 X58.153 Y41.587 E375.83127
G1 X57.260 Y41.587 E376.08272
G1 X49.087 Y49.760 E379.33604
G1 X49.087 Y48.867 E379.58749
G1 X56.367 Y41.587 E382.48519
G1 X55.473 Y41.587 E382.73665
G1 X49.087 Y47.973 E385.27874
G1 X49.087 Y47.080 E385.53020
G1 X54.580 Y41.587 E387.71668
G1 X53.687 Y41.587 E387.96814
G1 X49.087 Y46.187 E389.79901
G1 X49.087 Y45.293 E390.05046
G1 X52.793 Y41.587 E391.52573
G1 X51.900 Y41.587 E391.77718
G1 X49.087 Y44.400 E392.89684
G1 X49.087 Y43.507 E393.14829
G1 X51.007 Y41.587 E393.91234
G1 X50.113 Y41.587 E394.16379
G1 X49.087 Y42.613 E394.57223
G1 X49.087 Y41.720 E394.82369
G1 X49.220 Y41.587 E394.87651
M140 S0 ; set bed temperature
G1 Z0.450 F4200.000
G1 E392.87651 F2400.00000
G92 E0
G1 Z0.650 F4200.000
G1 X77.546 Y70.046 F4200.000
G1 Z0.450 F4200.000
G1 E2.00000 F2400.00000
G1 F2100
G1 X48.454 Y70.046 E3.95778
G1 X48.454 Y40.954 E5.91556
G1 X77.546 Y40.954 E7.87335
G1 X77.546 Y69.971 E9.82608
G1 E7.82608 F2400.00000
G92 E0
G1 Z0.650 F4200.000
G1 X76.977 Y41.667 F4200.000
G1 Z0.450 F4200.000
G1 E2.00000 F2400.00000
G1 F1200
G1 X76.833 Y41.523 E2.01790
G1 X75.857 Y41.523 E2.10363
G1 X76.977 Y42.643 E2.24276
G1 X76.977 Y43.619 E2.32848
G1 X74.881 Y41.523 E2.58885
G1 X73.906 Y41.523 E2.67458
G1 X76.977 Y44.594 E3.05618
G1 X76.977 Y45.570 E3.14190
G1 X72.930 Y41.523 E3.64474
G1 X71.954 Y41.523 E3.73046
G1 X76.977 Y46.546 E4.35453
G1 X76.977 Y47.522 E4.44025
G1 X70.978 Y41.523 E5.18555
G1 X70.002 Y41.523 E5.27128
G1 X76.977 Y48.498 E6.13781
G1 X76.977 Y49.473 E6.22354
G1 X69.027 Y41.523 E7.21130
G1 X68.051 Y41.523 E7.29703
G1 X76.977 Y50.449 E8.40603
G1 X76.977 Y51.425 E8.49175
G1 X67.075 Y41.523 E9.72199
G1 X66.099 Y41.523 E9.80771
G1 X76.977 Y52.401 E11.15918
G1 X76.977 Y53.376 E11.24490
G1 X65.124 Y41.523 E12.71761
G1 X64.148 Y41.523 E12.80333
G1 X76.977 Y54.352 E14.39726
G1 X76.977 Y55.328 E14.48299
G1 X63.172 Y41.523 E16.19816
G1 X62.196 Y41.523 E16.28388
G1 X76.977 Y56.304 E18.12028
G1 X76.977 Y57.280 E18.20601
G1 X61.220 Y41.523 E20.16364
G1 X60.245 Y41.523 E20.24936
G1 X76.977 Y58.255 E22.32823
G1 X76.977 Y59.231 E22.41396
G1 X59.269 Y41.523 E24.61406
G1 X58.293 Y41.523 E24.69978
G1 X76.977 Y60.207 E27.02111
G1 X76.977 Y61.183 E27.10684
G1 X57.317 Y41.523 E29.54941
G1 X56.341 Y41.523 E29.63513
G1 X76.977 Y62.159 E32.19893
G1 X76.977 Y63.134 E32.28466
G1 X55.366 Y41.523 E34.96969
G1 X54.390 Y41.523 E35.05542
G1 X76.977 Y64.110 E37.86168
G1 X76.977 Y65.086 E37.94741
G1 X53.414 Y41.523 E40.87491
G1 X52.438 Y41.523 E40.96063
G1 X76.977 Y66.062 E44.00937
G1 X76.977 Y67.038 E44.09509
G1 X51.462 Y41.523 E47.26506
G1 X50.487 Y41.523 E47.35078
G1 X76.977 Y68.013 E50.64198
G1 X76.977 Y68.989 E50.72771
G1 X49.511 Y41.523 E54.14014
G1 X49.023 Y41.523 E54.18301
G1 X49.023 Y42.011 E54.22586
G1 X76.489 Y69.477 E57.63831
G1 X75.513 Y69.477 E57.72403
G1 X49.023 Y42.987 E61.01524
G1 X49.023 Y43.962 E61.10097
G1 X74.538 Y69.477 E64.27094
G1 X73.562 Y69.477 E64.35667
G1 X49.023 Y44.938 E67.40541
G1 X49.023 Y45.914 E67.49113
G1 X72.586 Y69.477 E70.41864
G1 X71.610 Y69.477 E70.50437
G1 X49.023 Y46.890 E73.31064
G1 X49.023 Y47.866 E73.39637
G1 X70.634 Y69.477 E76.08141
G1 X69.659 Y69.477 E76.16714
G1 X49.023 Y48.841 E78.73095
G1 X49.023 Y49.817 E78.81667
G1 X68.683 Y69.477 E81.25925
G1 X67.707 Y69.477 E81.34497
G1 X49.023 Y50.793 E83.66632
G1 X49.023 Y51.769 E83.75204
G1 X66.731 Y69.477 E85.95215
G1 X65.756 Y69.477 E86.03788
G1 X49.023 Y52.744 E88.11675
G1 X49.023 Y53.720 E88.20248
G1 X64.780 Y69.477 E90.16012
G1 X63.804 Y69.477 E90.24584
G1 X49.023 Y54.696 E92.08225
G1 X49.023 Y55.672 E92.16798
G1 X62.828 Y69.477 E93.88315
G1 X61.852 Y69.477 E93.96888
G1 X49.023 Y56.648 E95.56282
G1 X49.023 Y57.623 E95.64855
G1 X60.877 Y69.477 E97.12126
G1 X59.901 Y69.477 E97.20698
G1 X49.023 Y58.599 E98.55846
G1 X49.023 Y59.575 E98.64418
G1 X58.925 Y69.477 E99.87443
G1 X57.949 Y69.477 E99.96015
G1 X49.023 Y60.551 E101.06916
G1 X49.023 Y61.527 E101.15489
G1 X56.973 Y69.477 E102.14266
G1 X55.998 Y69.477 E102.22839
G1 X49.023 Y62.502 E103.09493
G1 X49.023 Y63.478 E103.18066
G1 X55.022 Y69.477 E103.92597
G1 X54.046 Y69.477 E104.01169
G1 X49.023 Y64.454 E104.63577
G1 X49.023 Y65.430 E104.72149
G1 X53.070 Y69.477 E105.22433
G1 X52.094 Y69.477 E105.31006
G1 X49.023 Y66.406 E105.69167
G1 X49.023 Y67.381 E105.77739
G1 X51.119 Y69.477 E106.03777
G1 X50.143 Y69.477 E106.12350
G1 X49.023 Y68.357 E106.26264
G1 X49.023 Y69.333 E106.34836
G1 X49.167 Y69.477 E106.36625
G1 Z0.550 F4200.000
G1 E104.36625 F2400.00000
G92 E0
G1 Z0.750 F4200.000
G1 X77.546 Y70.046 F4200.000
G1 Z0.550 F4200.000
G1 E2.00000 F2400.00000
G1 F2100
G1 X48.454 Y70.046 E3.95778
G1 X48.454 Y40.954 E5.91556
G1 X77.546 Y40.954 E7.87335
G1 X77.546 Y69.971 E9.82608
G1 X76.833 Y69.477 F4200.000
G1 F1200
G1 X76.977 Y69.333 E9.84398
G1 X76.977 Y68.357 E9.92971
G1 X75.857 Y69.477 E10.06884
G1 X74.881 Y69.477 E10.15457
G1 X76.977 Y67.381 E10.41493
G1 X76.977 Y66.406 E10.50066
G1 X73.906 Y69.477 E10.88226
G1 X72.930 Y69.477 E10.96798
G1 X76.977 Y65.430 E11.47082
G1 X76.977 Y64.454 E11.55654
G1 X71.954 Y69.477 E12.18061
G1 X70.978 Y69.477 E12.26634
G1 X76.977 Y63.478 E13.01164
G1 X76.977 Y62.502 E13.09736
G1 X70.002 Y69.477 E13.96389
G1 X69.027 Y69.477 E14.04962
G1 X76.977 Y61.527 E15.03739
G1 X76.977 Y60.551 E15.12311
G1 X68.051 Y69.477 E16.23211
G1 X67.075 Y69.477 E16.31784
G1 X76.977 Y59.575 E17.54807
G1 X76.977 Y58.599 E17.63380
G1 X66.099 Y69.477 E18.98526
G1 X65.124 Y69.477 E19.07099
G1 X76.977 Y57.624 E20.54369
G1 X76.977 Y56.648 E20.62941
G1 X64.148 Y69.477 E22.22335
G1 X63.172 Y69.477 E22.30907
G1 X76.977 Y55.672 E24.02424
G1 X76.977 Y54.696 E24.10996
G1 X62.196 Y69.477 E25.94636
G1 X61.220 Y69.477 E26.03209
G1 X76.977 Y53.720 E27.98972
G1 X76.977 Y52.745 E28.07545
G1 X60.245 Y69.477 E30.15431
G1 X59.269 Y69.477 E30.24004
G1 X76.977 Y51.769 E32.44014
G1 X76.977 Y50.793 E32.52586
G1 X58.293 Y69.477 E34.84720
G1 X57.317 Y69.477 E34.93292
G1 X76.977 Y49.817 E37.37549
G1 X76.977 Y48.841 E37.46122
G1 X56.341 Y69.477 E40.02502
G1 X55.366 Y69.477 E40.11074
G1 X76.977 Y47.866 E42.79577
G1 X76.977 Y46.890 E42.88150
G1 X54.390 Y69.477 E45.68777
G1 X53.414 Y69.477 E45.77349
G1 X76.977 Y45.914 E48.70099
G1 X76.977 Y44.938 E48.78672
G1 X52.438 Y69.477 E51.83545
G1 X51.462 Y69.477 E51.92117
G1 X76.977 Y43.962 E55.09114
G1 X76.977 Y42.987 E55.17687
G1 X50.487 Y69.477 E58.46806
G1 X49.511 Y69.477 E58.55379
G1 X76.977 Y42.011 E61.96622
G1 X76.977 Y41.523 E62.00909
G1 X76.489 Y41.523 E62.05195
G1 X49.023 Y68.989 E65.46439
G1 X49.023 Y68.013 E65.55012
G1 X75.513 Y41.523 E68.84132
G1 X74.538 Y41.523 E68.92705
G1 X49.023 Y67.038 E72.09703
G1 X49.023 Y66.062 E72.18275
G1 X73.562 Y41.523 E75.23149
G1 X72.586 Y41.523 E75.31722
G1 X49.023 Y65.086 E78.24473
G1 X49.023 Y64.110 E78.33045
G1 X71.610 Y41.523 E81.13673
G1 X70.634 Y41.523 E81.22245
G1 X49.023 Y63.134 E83.90750
G1 X49.023 Y62.159 E83.99322
G1 X69.659 Y41.523 E86.55703
G1 X68.683 Y41.523 E86.64275
G1 X49.023 Y61.183 E89.08533
G1 X49.023 Y60.207 E89.17106
G1 X67.707 Y41.523 E91.49240
G1 X66.731 Y41.523 E91.57812
G1 X49.023 Y59.231 E93.77823
G1 X49.023 Y58.256 E93.86396
G1 X65.756 Y41.523 E95.94283
G1 X64.780 Y41.523 E96.02856
G1 X49.023 Y57.280 E97.98620
G1 X49.023 Y56.304 E98.07193
G1 X63.804 Y41.523 E99.90834
G1 X62.828 Y41.523 E99.99406
G1 X49.023 Y55.328 E101.70924
G1 X49.023 Y54.352 E101.79496
G1 X61.852 Y41.523 E103.38891
G1 X60.877 Y41.523 E103.47463
G1 X49.023 Y53.377 E104.94734
G1 X49.023 Y52.401 E105.03306
G1 X59.901 Y41.523 E106.38454
G1 X58.925 Y41.523 E106.47027
G1 X49.023 Y51.425 E107.70051
G1 X49.023 Y50.449 E107.78623
G1 X57.949 Y41.523 E108.89524
G1 X56.973 Y41.523 E108.98097
G1 X49.023 Y49.473 E109.96874
G1 X49.023 Y48.498 E110.05447
G1 X55.998 Y41.523 E110.92101
G1 X55.022 Y41.523 E111.00674
G1 X49.023 Y47.522 E111.75205
G1 X49.023 Y46.546 E111.83777
G1 X54.046 Y41.523 E112.46185
G1 X53.070 Y41.523 E112.54757
G1 X49.023 Y45.570 E113.05042
G1 X49.023 Y44.594 E113.13614
G1 X52.094 Y41.523 E113.51775
G1 X51.119 Y41.523 E113.60348
G1 X49.023 Y43.619 E113.86385
G1 X49.023 Y42.643 E113.94958
G1 X50.143 Y41.523 E114.08872
G1 X49.167 Y41.523 E114.17445
G1 X49.023 Y41.667 E114.19233
G1 Z0.650 F4200.000
G1 E112.19233 F2400.00000
G92 E0
G1 Z0.850 F4200.000
G1 X77.546 Y70.046 F4200.000
G1 Z0.650 F4200.000
G1 E2.00000 F2400.00000
G1 F2100
G1 X48.454 Y70.046 E3.95778
G1 X48.454 Y40.954 E5.91556
G1 X77.546 Y40.954 E7.87335
G1 X77.546 Y69.971 E9.82608
G1 E7.82608 F2400.00000
G92 E0
G1 Z0.850 F4200.000
G1 X76.977 Y41.667 F4200.000
G1 Z0.650 F4200.000
G1 E2.00000 F2400.00000
G1 F1200
G1 X76.833 Y41.523 E2.01790
G1 X75.857 Y41.523 E2.10363
G1 X76.977 Y42.643 E2.24276
G1 X76.977 Y43.619 E2.32848
G1 X74.881 Y41.523 E2.58885
G1 X73.906 Y41.523 E2.67458
G1 X76.977 Y44.594 E3.05618
G1 X76.977 Y45.570 E3.14190
G1 X72.930 Y41.523 E3.64474
G1 X71.954 Y41.523 E3.73046
G1 X76.977 Y46.546 E4.35453
G1 X76.977 Y47.522 E4.44025
G1 X70.978 Y41.523 E5.18555
G1 X70.002 Y41.523 E5.27128
G1 X76.977 Y48.498 E6.13781
G1 X76.977 Y49.473 E6.22354
G1 X69.027 Y41.523 E7.21130
G1 X68.051 Y41.523 E7.29703
G1 X76.977 Y50.449 E8.40603
G1 X76.977 Y51.425 E8.49175
G1 X67.075 Y41.523 E9.72199
G1 X66.099 Y41.523 E9.80771
G1 X76.977 Y52.401 E11.15918
G1 X76.977 Y53.376 E11.24490
G1 X65.124 Y41.523 E12.71761
G1 X64.148 Y41.523 E12.80333
G1 X76.977 Y54.352 E14.39726
G1 X76.977 Y55.328 E14.48299
G1 X63.172 Y41.523 E16.19816
G1 X62.196 Y41.523 E16.28388
G1 X76.977 Y56.304 E18.12028
G1 X76.977 Y57.280 E18.20601
G1 X61.220 Y41.523 E20.16364
G1 X60.245 Y41.523 E20.24936
G1 X76.977 Y58.255 E22.32823
G1 X76.977 Y59.231 E22.41396
G1 X59.269 Y41.523 E24.61406
G1 X58.293 Y41.523 E24.69978
G1 X76.977 Y60.207 E27.02111
G1 X76.977 Y61.183 E27.10684
G1 X57.317 Y41.523 E29.54941
G1 X56.341 Y41.523 E29.63513
G1 X76.977 Y62.159 E32.19893
G1 X76.977 Y63.134 E32.28466
G1 X55.366 Y41.523 E34.96969
G1 X54.390 Y41.523 E35.05542
G1 X76.977 Y64.110 E37.86168
G1 X76.977 Y65.086 E37.94741
G1 X53.414 Y41.523 E40.87491
G1 X52.438 Y41.523 E40.96063
G1 X76.977 Y66.062 E44.00937
G1 X76.977 Y67.038 E44.09509
G1 X51.462 Y41.523 E47.26506
G1 X50.487 Y41.523 E47.35078
G1 X76.977 Y68.013 E50.64198
G1 X76.977 Y68.989 E50.72771
G1 X49.511 Y41.523 E54.14014
G1 X49.023 Y41.523 E54.18301
G1 X49.023 Y42.011 E54.22586
G1 X76.489 Y69.477 E57.63831
G1 X75.513 Y69.477 E57.72403
G1 X49.023 Y42.987 E61.01524
G1 X49.023 Y43.962 E61.10097
G1 X74.538 Y69.477 E64.27094
G1 X73.562 Y69.477 E64.35667
G1 X49.023 Y44.938 E67.40541
G1 X49.023 Y45.914 E67.49113
G1 X72.586 Y69.477 E70.41864
G1 X71.610 Y69.477 E70.50437
G1 X49.023 Y46.890 E73.31064
G1 X49.023 Y47.866 E73.39637
G1 X70.634 Y69.477 E76.08141
G1 X69.659 Y69.477 E76.16714
G1 X49.023 Y48.841 E78.73095
G1 X49.023 Y49.817 E78.81667
G1 X68.683 Y69.477 E81.25925
G1 X67.707 Y69.477 E81.34497
G1 X49.023 Y50.793 E83.66632
G1 X49.023 Y51.769 E83.75204
G1 X66.731 Y69.477 E85.95215
G1 X65.756 Y69.477 E86.03788
G1 X49.023 Y52.744 E88.11675
G1 X49.023 Y53.720 E88.20248
G1 X64.780 Y69.477 E90.16012
G1 X63.804 Y69.477 E90.24584
G1 X49.023 Y54.696 E92.08225
G1 X49.023 Y55.672 E92.16798
G1 X62.828 Y69.477 E93.88315
G1 X61.852 Y69.477 E93.96888
G1 X49.023 Y56.648 E95.56282
G1 X49.023 Y57.623 E95.64855
G1 X60.877 Y69.477 E97.12126
