; generated by Slic3r 1.3.0 on 2019-09-26 at 14:34:00

; external perimeters extrusion width = 0.55mm (1.85mm^3/s)
; perimeters extrusion width = 0.70mm (4.75mm^3/s)
; infill extrusion width = 0.62mm (4.22mm^3/s)
; solid infill extrusion width = 0.70mm (1.36mm^3/s)
; top infill extrusion width = 0.70mm (1.02mm^3/s)

M107
M190 S60 ; set bed temperature and wait for it to be reached
M104 S200 ; set temperature

; Filament gcode

M109 S200 ; set temperature and wait for it to be reached
G21 ; set units to millimeters
G90 ; use absolute coordinates
M82 ; use absolute distances for extrusion
G92 E0
G1 Z0.350 F4200.000
G1 E-2.00000 F2400.00000
G92 E0
G1 Z0.550 F4200.000
G1 X45.413 Y38.750 F4200.000
G1 Z0.350 F4200.000
G1 E2.00000 F2400.00000
G1 F1800
G1 X47.165 Y37.271 E2.63866
G1 X49.317 Y36.478 E3.27732
G1 X50.497 Y36.372 E3.60718
G1 X75.503 Y36.372 E10.57054
G1 X77.762 Y36.769 E11.20920
G1 X79.750 Y37.913 E11.84786
G1 X81.229 Y39.665 E12.48652
G1 X82.022 Y41.817 E13.12518
G1 X82.128 Y42.997 E13.45504
G1 X82.128 Y68.003 E20.41839
G1 X81.731 Y70.262 E21.05706
G1 X80.587 Y72.250 E21.69572
G1 X78.835 Y73.729 E22.33438
G1 X76.683 Y74.522 E22.97304
G1 X75.503 Y74.628 E23.30290
G1 X50.497 Y74.628 E30.26625
G1 X48.238 Y74.231 E30.90491
G1 X46.250 Y73.087 E31.54358
G1 X44.771 Y71.335 E32.18224
G1 X43.978 Y69.183 E32.82090
G1 X43.872 Y68.003 E33.15076
G1 X43.872 Y42.997 E40.11411
G1 X44.269 Y40.738 E40.75277
G1 X45.375 Y38.815 E41.37055
G1 E39.37055 F2400.00000
G92 E0
G1 Z0.550 F4200.000
G1 X75.153 Y67.653 F4200.000
G1 Z0.350 F4200.000
G1 E2.00000 F2400.00000
G1 F1800
G1 X50.847 Y67.653 E8.76843
G1 X50.847 Y43.347 E15.53685
G1 X75.153 Y43.347 E22.30528
G1 X75.153 Y67.578 E29.05282
G1 X74.462 Y67.094 F4200.000
G1 F1800
G1 X74.594 Y66.962 E29.10526
G1 X74.594 Y66.075 E29.35304
G1 X73.575 Y67.094 E29.75590
G1 X72.688 Y67.094 E30.00368
G1 X74.594 Y65.188 E30.75696
G1 X74.594 Y64.301 E31.00475
G1 X71.801 Y67.094 E32.10844
G1 X70.914 Y67.094 E32.35623
G1 X74.594 Y63.414 E33.81035
G1 X74.594 Y62.528 E34.05813
G1 X70.028 Y67.094 E35.86267
G1 X69.141 Y67.094 E36.11046
G1 X74.594 Y61.641 E38.26541
G1 X74.594 Y60.754 E38.51320
G1 X68.254 Y67.094 E41.01858
G1 X67.367 Y67.094 E41.26636
G1 X74.594 Y59.867 E44.12216
G1 X74.594 Y58.981 E44.36994
G1 X66.481 Y67.094 E47.57616
G1 X65.594 Y67.094 E47.82395
G1 X74.594 Y58.094 E51.38059
G1 X74.594 Y57.207 E51.62837
G1 X64.707 Y67.094 E55.53543
G1 X63.820 Y67.094 E55.78321
G1 X74.594 Y56.320 E60.04069
G1 X74.594 Y55.434 E60.28848
G1 X62.934 Y67.094 E64.89638
G1 X62.047 Y67.094 E65.14416
G1 X74.594 Y54.547 E70.10248
G1 X74.594 Y53.660 E70.35026
G1 X61.160 Y67.094 E75.65900
G1 X60.273 Y67.094 E75.90679
G1 X74.594 Y52.773 E81.56595
G1 X74.594 Y51.887 E81.81373
G1 X59.387 Y67.094 E87.82331
G1 X58.500 Y67.094 E88.07110
G1 X74.594 Y51.000 E94.43109
G1 X74.594 Y50.113 E94.67888
G1 X57.613 Y67.094 E101.38930
G1 X56.726 Y67.094 E101.63708
G1 X74.594 Y49.226 E108.69792
G1 X74.594 Y48.340 E108.94571
G1 X55.840 Y67.094 E116.35697
G1 X54.953 Y67.094 E116.60475
G1 X74.594 Y47.453 E124.36643
G1 X74.594 Y46.566 E124.61421
G1 X54.066 Y67.094 E132.72631
G1 X53.179 Y67.094 E132.97410
G1 X74.594 Y45.679 E141.43662
G1 X74.594 Y44.793 E141.68440
G1 X52.293 Y67.094 E150.49734
G1 X51.406 Y67.094 E150.74513
G1 X74.594 Y43.906 E159.90848
G1 X73.707 Y43.906 E160.15627
G1 X51.406 Y66.207 E168.96921
G1 X51.406 Y65.321 E169.21699
G1 X72.821 Y43.906 E177.67951
G1 X71.934 Y43.906 E177.92730
G1 X51.406 Y64.434 E186.03940
G1 X51.406 Y63.547 E186.28718
G1 X71.047 Y43.906 E194.04886
G1 X70.160 Y43.906 E194.29665
G1 X51.406 Y62.660 E201.70791
G1 X51.406 Y61.774 E201.95569
G1 X69.274 Y43.906 E209.01654
G1 X68.387 Y43.906 E209.26432
G1 X51.406 Y60.887 E215.97474
G1 X51.406 Y60.000 E216.22252
G1 X67.500 Y43.906 E222.58253
G1 X66.613 Y43.906 E222.83031
G1 X51.406 Y59.113 E228.83989
G1 X51.406 Y58.227 E229.08768
G1 X65.727 Y43.906 E234.74684
G1 X64.840 Y43.906 E234.99462
G1 X51.406 Y57.340 E240.30336
G1 X51.406 Y56.453 E240.55115
G1 X63.953 Y43.906 E245.50947
G1 X63.066 Y43.906 E245.75725
G1 X51.406 Y55.566 E250.36515
G1 X51.406 Y54.680 E250.61294
G1 X62.180 Y43.906 E254.87042
G1 X61.293 Y43.906 E255.11820
G1 X51.406 Y53.793 E259.02526
G1 X51.406 Y52.906 E259.27305
G1 X60.406 Y43.906 E262.82969
G1 X59.519 Y43.906 E263.07747
G1 X51.406 Y52.019 E266.28369
G1 X51.406 Y51.133 E266.53148
G1 X58.633 Y43.906 E269.38728
G1 X57.746 Y43.906 E269.63506
G1 X51.406 Y50.246 E272.14044
G1 X51.406 Y49.359 E272.38823
G1 X56.859 Y43.906 E274.54319
G1 X55.972 Y43.906 E274.79097
G1 X51.406 Y48.472 E276.59551
G1 X51.406 Y47.586 E276.84330
G1 X55.086 Y43.906 E278.29742
G1 X54.199 Y43.906 E278.54520
G1 X51.406 Y46.699 E279.64890
G1 X51.406 Y45.812 E279.89669
G1 X53.312 Y43.906 E280.64997
G1 X52.425 Y43.906 E280.89775
G1 X51.406 Y44.925 E281.30061
G1 X51.406 Y44.038 E281.54840
G1 X51.538 Y43.906 E281.60084
M140 S0 ; set bed temperature
G1 Z0.450 F4200.000
G1 E279.60084 F2400.00000
G92 E0
G1 Z0.650 F4200.000
G1 X75.228 Y67.728 F4200.000
G1 Z0.450 F4200.000
G1 E2.00000 F2400.00000
G1 F2100
G1 X50.772 Y67.728 E3.64576
G1 X50.772 Y43.272 E5.29152
G1 X75.228 Y43.272 E6.93728
G1 X75.228 Y67.653 E8.57799
G1 E6.57799 F2400.00000
G92 E0
G1 Z0.650 F4200.000
G1 X74.659 Y43.985 F4200.000
G1 Z0.450 F4200.000
G1 E2.00000 F2400.00000
G1 F1200
G1 X74.515 Y43.841 E2.01771
G1 X73.549 Y43.841 E2.10165
G1 X74.659 Y44.951 E2.23807
G1 X74.659 Y45.916 E2.32200
G1 X72.584 Y43.841 E2.57713
G1 X71.618 Y43.841 E2.66106
G1 X74.659 Y46.882 E3.03489
G1 X74.659 Y47.848 E3.11883
G1 X70.652 Y43.841 E3.61136
G1 X69.687 Y43.841 E3.69529
G1 X74.659 Y48.813 E4.30653
G1 X74.659 Y49.779 E4.39047
G1 X68.721 Y43.841 E5.12041
G1 X67.756 Y43.841 E5.20435
G1 X74.659 Y50.744 E6.05299
G1 X74.659 Y51.710 E6.13693
G1 X66.790 Y43.841 E7.10428
G1 X65.825 Y43.841 E7.18821
G1 X74.659 Y52.675 E8.27427
G1 X74.659 Y53.641 E8.35820
G1 X64.859 Y43.841 E9.56296
G1 X63.894 Y43.841 E9.64690
G1 X74.659 Y54.606 E10.97036
G1 X74.659 Y55.572 E11.05430
G1 X62.928 Y43.841 E12.49647
G1 X61.962 Y43.841 E12.58040
G1 X74.659 Y56.538 E14.14128
G1 X74.659 Y57.503 E14.22521
G1 X60.997 Y43.841 E15.90479
G1 X60.031 Y43.841 E15.98873
G1 X74.659 Y58.469 E17.78701
G1 X74.659 Y59.434 E17.87095
G1 X59.066 Y43.841 E19.78793
G1 X58.100 Y43.841 E19.87187
G1 X74.659 Y60.400 E21.90756
G1 X74.659 Y61.365 E21.99150
G1 X57.135 Y43.841 E24.14589
G1 X56.169 Y43.841 E24.22983
G1 X74.659 Y62.331 E26.50293
G1 X74.659 Y63.296 E26.58686
G1 X55.203 Y43.841 E28.97867
G1 X54.238 Y43.841 E29.06260
G1 X74.659 Y64.262 E31.57311
G1 X74.659 Y65.228 E31.65705
G1 X53.272 Y43.841 E34.28626
G1 X52.307 Y43.841 E34.37020
G1 X74.659 Y66.193 E37.11812
G1 X74.659 Y67.159 E37.20205
G1 X51.341 Y43.841 E40.06868
G1 X51.341 Y44.807 E40.15261
G1 X73.693 Y67.159 E42.90053
G1 X72.728 Y67.159 E42.98447
G1 X51.341 Y45.772 E45.61369
G1 X51.341 Y46.738 E45.69763
G1 X71.762 Y67.159 E48.20814
G1 X70.797 Y67.159 E48.29207
G1 X51.341 Y47.703 E50.68388
G1 X51.341 Y48.669 E50.76782
G1 X69.831 Y67.159 E53.04092
G1 X68.865 Y67.159 E53.12486
G1 X51.341 Y49.635 E55.27926
G1 X51.341 Y50.600 E55.36320
G1 X67.900 Y67.159 E57.39889
G1 X66.934 Y67.159 E57.48283
G1 X51.341 Y51.566 E59.39982
G1 X51.341 Y52.531 E59.48376
G1 X65.969 Y67.159 E61.28204
G1 X65.003 Y67.159 E61.36598
G1 X51.341 Y53.497 E63.04556
G1 X51.341 Y54.462 E63.12950
G1 X64.038 Y67.159 E64.69037
G1 X63.072 Y67.159 E64.77431
G1 X51.341 Y55.428 E66.21648
G1 X51.341 Y56.393 E66.30042
G1 X62.107 Y67.159 E67.62388
G1 X61.141 Y67.159 E67.70782
G1 X51.341 Y57.359 E68.91258
G1 X51.341 Y58.325 E68.99652
G1 X60.175 Y67.159 E70.08258
G1 X59.210 Y67.159 E70.16652
G1 X51.341 Y59.290 E71.13387
G1 X51.341 Y60.256 E71.21781
G1 X58.244 Y67.159 E72.06646
G1 X57.279 Y67.159 E72.15039
G1 X51.341 Y61.221 E72.88034
G1 X51.341 Y62.187 E72.96427
G1 X56.313 Y67.159 E73.57551
G1 X55.348 Y67.159 E73.65945
G1 X51.341 Y63.152 E74.15199
G1 X51.341 Y64.118 E74.23592
G1 X54.382 Y67.159 E74.60975
G1 X53.416 Y67.159 E74.69369
G1 X51.341 Y65.084 E74.94882
G1 X51.341 Y66.049 E75.03275
G1 X52.451 Y67.159 E75.16918
G1 X51.485 Y67.159 E75.25311
G1 X51.341 Y67.015 E75.27083
G1 Z0.550 F4200.000
G1 E73.27083 F2400.00000
G92 E0
G1 Z0.750 F4200.000
G1 X75.228 Y67.728 F4200.000
G1 Z0.550 F4200.000
G1 E2.00000 F2400.00000
G1 F2100
G1 X50.772 Y67.728 E3.64576
G1 X50.772 Y43.272 E5.29152
G1 X75.228 Y43.272 E6.93728
G1 X75.228 Y67.653 E8.57799
G1 X74.515 Y67.159 F4200.000
G1 F1200
G1 X74.659 Y67.015 E8.59570
G1 X74.659 Y66.049 E8.67964
G1 X73.549 Y67.159 E8.81605
G1 X72.584 Y67.159 E8.89999
G1 X74.659 Y65.084 E9.15511
G1 X74.659 Y64.118 E9.23905
G1 X71.618 Y67.159 E9.61288
G1 X70.652 Y67.159 E9.69681
G1 X74.659 Y63.152 E10.18934
G1 X74.659 Y62.187 E10.27328
G1 X69.687 Y67.159 E10.88452
G1 X68.721 Y67.159 E10.96845
G1 X74.659 Y61.221 E11.69839
G1 X74.659 Y60.256 E11.78233
G1 X67.756 Y67.159 E12.63098
G1 X66.790 Y67.159 E12.71491
G1 X74.659 Y59.290 E13.68226
G1 X74.659 Y58.325 E13.76620
G1 X65.825 Y67.159 E14.85225
G1 X64.859 Y67.159 E14.93619
G1 X74.659 Y57.359 E16.14095
G1 X74.659 Y56.394 E16.22489
G1 X63.894 Y67.159 E17.54835
G1 X62.928 Y67.159 E17.63229
G1 X74.659 Y55.428 E19.07445
G1 X74.659 Y54.462 E19.15839
G1 X61.962 Y67.159 E20.71926
G1 X60.997 Y67.159 E20.80320
G1 X74.659 Y53.497 E22.48278
G1 X74.659 Y52.531 E22.56671
G1 X60.031 Y67.159 E24.36499
G1 X59.066 Y67.159 E24.44893
G1 X74.659 Y51.566 E26.36592
G1 X74.659 Y50.600 E26.44985
G1 X58.100 Y67.159 E28.48554
G1 X57.135 Y67.159 E28.56948
G1 X74.659 Y49.635 E30.72388
G1 X74.659 Y48.669 E30.80781
G1 X56.169 Y67.159 E33.08091
G1 X55.203 Y67.159 E33.16485
G1 X74.659 Y47.704 E35.55665
G1 X74.659 Y46.738 E35.64059
G1 X54.238 Y67.159 E38.15110
G1 X53.272 Y67.159 E38.23504
G1 X74.659 Y45.772 E40.86425
G1 X74.659 Y44.807 E40.94819
G1 X52.307 Y67.159 E43.69610
G1 X51.341 Y67.159 E43.78004
G1 X74.659 Y43.841 E46.64666
G1 X73.693 Y43.841 E46.73060
G1 X51.341 Y66.193 E49.47852
G1 X51.341 Y65.228 E49.56246
G1 X72.728 Y43.841 E52.19167
G1 X71.762 Y43.841 E52.27561
G1 X51.341 Y64.262 E54.78612
G1 X51.341 Y63.297 E54.87006
G1 X70.797 Y43.841 E57.26187
G1 X69.831 Y43.841 E57.34581
G1 X51.341 Y62.331 E59.61891
G1 X51.341 Y61.365 E59.70285
G1 X68.865 Y43.841 E61.85725
G1 X67.900 Y43.841 E61.94118
G1 X51.341 Y60.400 E63.97688
G1 X51.341 Y59.434 E64.06081
G1 X66.934 Y43.841 E65.97780
G1 X65.969 Y43.841 E66.06174
G1 X51.341 Y58.469 E67.86003
G1 X51.341 Y57.503 E67.94396
G1 X65.003 Y43.841 E69.62354
G1 X64.038 Y43.841 E69.70748
G1 X51.341 Y56.538 E71.26836
G1 X51.341 Y55.572 E71.35229
G1 X63.072 Y43.841 E72.79447
G1 X62.107 Y43.841 E72.87840
G1 X51.341 Y54.607 E74.20187
G1 X51.341 Y53.641 E74.28581
G1 X61.141 Y43.841 E75.49057
G1 X60.175 Y43.841 E75.57451
G1 X51.341 Y52.675 E76.66057
G1 X51.341 Y51.710 E76.74450
G1 X59.210 Y43.841 E77.71186
G1 X58.244 Y43.841 E77.79579
G1 X51.341 Y50.744 E78.64444
G1 X51.341 Y49.779 E78.72838
G1 X57.279 Y43.841 E79.45832
G1 X56.313 Y43.841 E79.54226
G1 X51.341 Y48.813 E80.15350
G1 X51.341 Y47.848 E80.23744
G1 X55.348 Y43.841 E80.72997
G1 X54.382 Y43.841 E80.81391
G1 X51.341 Y46.882 E81.18774
G1 X51.341 Y45.916 E81.27168
G1 X53.416 Y43.841 E81.52680
G1 X52.451 Y43.841 E81.61074
G1 X51.341 Y44.951 E81.74716
G1 X51.341 Y43.985 E81.83110
G1 X51.485 Y43.841 E81.84882
M106 S132.6
G1 Z0.650 F4200.000
G1 E79.84882 F2400.00000
G92 E0
G1 Z0.850 F4200.000
G1 X75.228 Y67.728 F4200.000
G1 Z0.650 F4200.000
G1 E2.00000 F2400.00000
G1 F2100
G1 X50.772 Y67.728 E3.64576
G1 X50.772 Y43.272 E5.29152
G1 X75.228 Y43.272 E6.93728
G1 X75.228 Y67.653 E8.57799
G1 E6.57799 F2400.00000
G92 E0
G1 Z0.850 F4200.000
G1 X74.659 Y43.985 F4200.000
G1 Z0.650 F4200.000
G1 E2.00000 F2400.00000
G1 F1200
G1 X74.515 Y43.841 E2.01771
G1 X73.549 Y43.841 E2.10165
G1 X74.659 Y44.951 E2.23807
G1 X74.659 Y45.916 E2.32200
G1 X72.584 Y43.841 E2.57713
G1 X71.618 Y43.841 E2.66106
G1 X74.659 Y46.882 E3.03489
G1 X74.659 Y47.848 E3.11883
G1 X70.652 Y43.841 E3.61136
G1 X69.687 Y43.841 E3.69529
G1 X74.659 Y48.813 E4.30653
G1 X74.659 Y49.779 E4.39047
G1 X68.721 Y43.841 E5.12041
G1 X67.756 Y43.841 E5.20435
G1 X74.659 Y50.744 E6.05299
G1 X74.659 Y51.710 E6.13693
G1 X66.790 Y43.841 E7.10428
G1 X65.825 Y43.841 E7.18821
G1 X74.659 Y52.675 E8.27427
G1 X74.659 Y53.641 E8.35820
G1 X64.859 Y43.841 E9.56296
G1 X63.894 Y43.841 E9.64690
G1 X74.659 Y54.606 E10.97036
G1 X74.659 Y55.572 E11.05430
G1 X62.928 Y43.841 E12.49647
G1 X61.962 Y43.841 E12.58040
G1 X74.659 Y56.538 E14.14128
G1 X74.659 Y57.503 E14.22521
G1 X60.997 Y43.841 E15.90479
G1 X60.031 Y43.841 E15.98873
G1 X74.659 Y58.469 E17.78701
G1 X74.659 Y59.434 E17.87095
G1 X59.066 Y43.841 E19.78793
G1 X58.100 Y43.841 E19.87187
G1 X74.659 Y60.400 E21.90756
G1 X74.659 Y61.365 E21.99150
G1 X57.135 Y43.841 E24.14589
G1 X56.169 Y43.841 E24.22983
G1 X74.659 Y62.331 E26.50293
G1 X74.659 Y63.296 E26.58686
G1 X55.203 Y43.841 E28.97867
G1 X54.238 Y43.841 E29.06260
G1 X74.659 Y64.262 E31.57311
G1 X74.659 Y65.228 E31.65705
G1 X53.272 Y43.841 E34.28626
G1 X52.307 Y43.841 E34.37020
G1 X74.659 Y66.193 E37.11812
G1 X74.659 Y67.159 E37.20205
G1 X51.341 Y43.841 E40.06868
G1 X51.341 Y44.807 E40.15261
G1 X73.693 Y67.159 E42.90053
G1 X72.728 Y67.159 E42.98447
G1 X51.341 Y45.772 E45.61369
G1 X51.341 Y46.738 E45.69763
G1 X71.762 Y67.159 E48.20814
G1 X70.797 Y67.159 E48.29207
G1 X51.341 Y47.703 E50.68388
G1 X51.341 Y48.669 E50.76782
G1 X69.831 Y67.159 E53.04092
G1 X68.865 Y67.159 E53.12486
G1 X51.341 Y49.635 E55.27926
G1 X51.341 Y50.600 E55.36320
G1 X67.900 Y67.159 E57.39889
G1 X66.934 Y67.159 E57.48283
G1 X51.341 Y51.566 E59.39982
G1 X51.341 Y52.531 E59.48376
G1 X65.969 Y67.159 E61.28204
G1 X65.003 Y67.159 E61.36598
G1 X51.341 Y53.497 E63.04556
G1 X51.341 Y54.462 E63.12950
G1 X64.038 Y67.159 E64.69037
G1 X63.072 Y67.159 E64.77431
G1 X51.341 Y55.428 E66.21648
G1 X51.341 Y56.393 E66.30042
G1 X62.107 Y67.159 E67.62388
G1 X61.141 Y67.159 E67.70782
G1 X51.341 Y57.359 E68.91258
G1 X51.341 Y58.325 E68.99652
G1 X60.175 Y67.159 E70.08258
G1 X59.210 Y67.159 E70.16652
G1 X51.341 Y59.290 E71.13387
G1 X51.341 Y60.256 E71.21781
G1 X58.244 Y67.159 E72.06646
G1 X57.279 Y67.159 E72.15039
G1 X51.341 Y61.221 E72.88034
G1 X51.341 Y62.187 E72.96427
G1 X56.313 Y67.159 E73.57551
G1 X55.348 Y67.159 E73.65945
G1 X51.341 Y63.152 E74.15199
G1 X51.341 Y64.118 E74.23592
G1 X54.382 Y67.159 E74.60975
G1 X53.416 Y67.159 E74.69369
G1 X51.341 Y65.084 E74.94882
G1 X51.341 Y66.049 E75.03275
G1 X52.451 Y67.159 E75.16918
G1 X51.485 Y67.159 E75.25311
G1 X51.341 Y67.015 E75.27083
G1 Z0.750 F4200.000
G1 E73.27083 F2400.00000
G92 E0
G1 Z0.950 F4200.000
G1 X75.228 Y67.728 F4200.000
G1 Z0.750 F4200.000
G1 E2.00000 F2400.00000
G1 F2100
G1 X50.772 Y67.728 E3.64576
G1 X50.772 Y43.272 E5.29152
G1 X75.228 Y43.272 E6.93728
G1 X75.228 Y67.653 E8.57799
G1 X74.515 Y67.159 F4200.000
G1 F1200
G1 X74.659 Y67.015 E8.59570
G1 X74.659 Y66.049 E8.67964
G1 X73.549 Y67.159 E8.81605
G1 X72.584 Y67.159 E8.89999
G1 X74.659 Y65.084 E9.15511
G1 X74.659 Y64.118 E9.23905
G1 X71.618 Y67.159 E9.61288
G1 X70.652 Y67.159 E9.69681
G1 X74.659 Y63.152 E10.18934
G1 X74.659 Y62.187 E10.27328
G1 X69.687 Y67.159 E10.88452
G1 X68.721 Y67.159 E10.96845
G1 X74.659 Y61.221 E11.69839
G1 X74.659 Y60.256 E11.78233
G1 X67.756 Y67.159 E12.63098
G1 X66.790 Y67.159 E12.71491
G1 X74.659 Y59.290 E13.68226
G1 X74.659 Y58.325 E13.76620
G1 X65.825 Y67.159 E14.85225
G1 X64.859 Y67.159 E14.93619
G1 X74.659 Y57.359 E16.14095
G1 X74.659 Y56.394 E16.22489
G1 X63.894 Y67.159 E17.54835
G1 X62.928 Y67.159 E17.63229
G1 X74.659 Y55.428 E19.07445
G1 X74.659 Y54.462 E19.15839
G1 X61.962 Y67.159 E20.71926
G1 X60.997 Y67.159 E20.80320
G1 X74.659 Y53.497 E22.48278
G1 X74.659 Y52.531 E22.56671
G1 X60.031 Y67.159 E24.36499
G1 X59.066 Y67.159 E24.44893
G1 X74.659 Y51.566 E26.36592
G1 X74.659 Y50.600 E26.44985
G1 X58.100 Y67.159 E28.48554
G1 X57.135 Y67.159 E28.56948
G1 X74.659 Y49.635 E30.72388
G1 X74.659 Y48.669 E30.80781
G1 X56.169 Y67.159 E33.08091
G1 X55.203 Y67.159 E33.16485
G1 X74.659 Y47.704 E35.55665
G1 X74.659 Y46.738 E35.64059
G1 X54.238 Y67.159 E38.15110
G1 X53.272 Y67.159 E38.23504
G1 X74.659 Y45.772 E40.86425
