; generated by Slic3r 1.3.0 on 2019-09-26 at 14:39:31

; external perimeters extrusion width = 0.55mm (1.85mm^3/s)
; perimeters extrusion width = 0.70mm (4.75mm^3/s)
; infill extrusion width = 0.62mm (4.22mm^3/s)
; solid infill extrusion width = 0.70mm (1.36mm^3/s)
; top infill extrusion width = 0.70mm (1.02mm^3/s)

M107
M190 S60 ; set bed temperature and wait for it to be reached
M104 S200 ; set temperature

; Filament gcode

M109 S200 ; set temperature and wait for it to be reached
G21 ; set units to millimeters
G90 ; use absolute coordinates
M82 ; use absolute distances for extrusion
G92 E0
G1 Z0.350 F4200.000
G1 E-2.00000 F2400.00000
G92 E0
G1 Z0.550 F4200.000
G1 X42.867 Y36.204 F4200.000
G1 Z0.350 F4200.000
G1 E2.00000 F2400.00000
G1 F1800
G1 X44.619 Y34.725 E2.63866
G1 X46.771 Y33.932 E3.27732
G1 X47.951 Y33.826 E3.60718
G1 X78.049 Y33.826 E11.98857
G1 X80.308 Y34.223 E12.62723
G1 X82.296 Y35.367 E13.26589
G1 X83.775 Y37.119 E13.90455
G1 X84.568 Y39.271 E14.54321
G1 X84.674 Y40.451 E14.87307
G1 X84.674 Y70.549 E23.25446
G1 X84.277 Y72.808 E23.89312
G1 X83.133 Y74.796 E24.53178
G1 X81.381 Y76.275 E25.17045
G1 X79.229 Y77.068 E25.80911
G1 X78.049 Y77.174 E26.13896
G1 X47.951 Y77.174 E34.52035
G1 X45.692 Y76.777 E35.15902
G1 X43.704 Y75.633 E35.79768
G1 X42.225 Y73.881 E36.43634
G1 X41.432 Y71.729 E37.07500
G1 X41.326 Y70.549 E37.40486
G1 X41.326 Y40.451 E45.78625
G1 X41.723 Y38.192 E46.42491
G1 X42.829 Y36.269 E47.04268
G1 E45.04268 F2400.00000
G92 E0
G1 Z0.550 F4200.000
G1 X77.699 Y70.199 F4200.000
G1 Z0.350 F4200.000
G1 E2.00000 F2400.00000
G1 F1800
G1 X48.301 Y70.199 E10.18646
G1 X48.301 Y40.801 E18.37292
G1 X77.699 Y40.801 E26.55938
G1 X77.699 Y70.124 E34.72495
G1 X77.008 Y69.640 F4200.000
G1 F1800
G1 X77.140 Y69.508 E34.77779
G1 X77.140 Y68.614 E35.02941
G1 X76.114 Y69.640 E35.43808
G1 X75.220 Y69.640 E35.68970
G1 X77.140 Y67.720 E36.45421
G1 X77.140 Y66.827 E36.70582
G1 X74.327 Y69.640 E37.82617
G1 X73.433 Y69.640 E38.07778
G1 X77.140 Y65.933 E39.55397
G1 X77.140 Y65.040 E39.80558
G1 X72.540 Y69.640 E41.63760
G1 X71.646 Y69.640 E41.88921
G1 X77.140 Y64.146 E44.07706
G1 X77.140 Y63.253 E44.32867
G1 X70.753 Y69.640 E46.87236
G1 X69.859 Y69.640 E47.12397
G1 X77.140 Y62.359 E50.02349
G1 X77.140 Y61.465 E50.27511
G1 X68.965 Y69.640 E53.53046
G1 X68.072 Y69.640 E53.78208
G1 X77.140 Y60.572 E57.39327
G1 X77.140 Y59.678 E57.64488
G1 X67.178 Y69.640 E61.61191
G1 X66.285 Y69.640 E61.86352
G1 X77.140 Y58.785 E66.18638
G1 X77.140 Y57.891 E66.43799
G1 X65.391 Y69.640 E71.11669
G1 X64.497 Y69.640 E71.36830
G1 X77.140 Y56.997 E76.40283
G1 X77.140 Y56.104 E76.65445
G1 X63.604 Y69.640 E82.04481
G1 X62.710 Y69.640 E82.29643
G1 X77.140 Y55.210 E88.04263
G1 X77.140 Y54.317 E88.29424
G1 X61.817 Y69.640 E94.39627
G1 X60.923 Y69.640 E94.64789
G1 X77.140 Y53.423 E101.10576
G1 X77.140 Y52.530 E101.35737
G1 X60.030 Y69.640 E108.17108
G1 X59.136 Y69.640 E108.42269
G1 X77.140 Y51.636 E115.59223
G1 X77.140 Y50.742 E115.84384
G1 X58.242 Y69.640 E123.36922
G1 X57.349 Y69.640 E123.62083
G1 X77.140 Y49.849 E131.50204
G1 X77.140 Y48.955 E131.75365
G1 X56.455 Y69.640 E139.99070
G1 X55.562 Y69.640 E140.24231
G1 X77.140 Y48.062 E148.83519
G1 X77.140 Y47.168 E149.08680
G1 X54.668 Y69.640 E158.03551
G1 X53.774 Y69.640 E158.28713
G1 X77.140 Y46.274 E167.59168
G1 X77.140 Y45.381 E167.84329
G1 X52.881 Y69.640 E177.50367
G1 X51.987 Y69.640 E177.75529
G1 X77.140 Y44.487 E187.77151
G1 X77.140 Y43.594 E188.02312
G1 X51.094 Y69.640 E198.39517
G1 X50.200 Y69.640 E198.64679
G1 X77.140 Y42.700 E209.37468
G1 X77.140 Y41.807 E209.62629
G1 X49.307 Y69.640 E220.71001
G1 X48.860 Y69.640 E220.83583
G1 X48.860 Y69.194 E220.96163
G1 X76.694 Y41.360 E232.04538
G1 X75.800 Y41.360 E232.29700
G1 X48.860 Y68.300 E243.02492
G1 X48.860 Y67.406 E243.27653
G1 X74.906 Y41.360 E253.64862
G1 X74.013 Y41.360 E253.90023
G1 X48.860 Y66.513 E263.91648
G1 X48.860 Y65.619 E264.16809
G1 X73.119 Y41.360 E273.82851
G1 X72.226 Y41.360 E274.08012
G1 X48.860 Y64.726 E283.38471
G1 X48.860 Y63.832 E283.63632
G1 X71.332 Y41.360 E292.58506
G1 X70.438 Y41.360 E292.83668
G1 X48.860 Y62.938 E301.42959
G1 X48.860 Y62.045 E301.68120
G1 X69.545 Y41.360 E309.91828
G1 X68.651 Y41.360 E310.16989
G1 X48.860 Y61.151 E318.05113
G1 X48.860 Y60.258 E318.30275
G1 X67.758 Y41.360 E325.82815
G1 X66.864 Y41.360 E326.07977
G1 X48.860 Y59.364 E333.24934
G1 X48.860 Y58.471 E333.50095
G1 X65.971 Y41.360 E340.31469
G1 X65.077 Y41.360 E340.56630
G1 X48.860 Y57.577 E347.02420
G1 X48.860 Y56.683 E347.27582
G1 X64.183 Y41.360 E353.37788
G1 X63.290 Y41.360 E353.62950
G1 X48.860 Y55.790 E359.37573
G1 X48.860 Y54.896 E359.62734
G1 X62.396 Y41.360 E365.01774
G1 X61.503 Y41.360 E365.26935
G1 X48.860 Y54.003 E370.30392
G1 X48.860 Y53.109 E370.55553
G1 X60.609 Y41.360 E375.23426
G1 X59.715 Y41.360 E375.48587
G1 X48.860 Y52.215 E379.80876
G1 X48.860 Y51.322 E380.06038
G1 X58.822 Y41.360 E384.02744
G1 X57.928 Y41.360 E384.27905
G1 X48.860 Y50.428 E387.89027
G1 X48.860 Y49.535 E388.14188
G1 X57.035 Y41.360 E391.39727
G1 X56.141 Y41.360 E391.64889
G1 X48.860 Y48.641 E394.54844
G1 X48.860 Y47.748 E394.80005
G1 X55.248 Y41.360 E397.34377
G1 X54.354 Y41.360 E397.59539
G1 X48.860 Y46.854 E399.78327
G1 X48.860 Y45.960 E400.03488
G1 X53.460 Y41.360 E401.86693
G1 X52.567 Y41.360 E402.11854
G1 X48.860 Y45.067 E403.59476
G1 X48.860 Y44.173 E403.84637
G1 X51.673 Y41.360 E404.96675
G1 X50.780 Y41.360 E405.21836
G1 X48.860 Y43.280 E405.98291
G1 X48.860 Y42.386 E406.23452
G1 X49.886 Y41.360 E406.64323
G1 X48.992 Y41.360 E406.89484
G1 X48.860 Y41.492 E406.94763
M140 S0 ; set bed temperature
G1 Z0.450 F4200.000
G1 E404.94763 F2400.00000
G92 E0
G1 Z0.650 F4200.000
G1 X77.774 Y70.274 F4200.000
G1 Z0.450 F4200.000
G1 E2.00000 F2400.00000
G1 F2100
G1 X48.226 Y70.274 E3.98844
G1 X48.226 Y40.726 E5.97688
G1 X77.774 Y40.726 E7.96533
G1 X77.774 Y70.199 E9.94872
G1 E7.94872 F2400.00000
G92 E0
G1 Z0.650 F4200.000
G1 X77.205 Y41.439 F4200.000
G1 Z0.450 F4200.000
G1 E2.00000 F2400.00000
G1 F1200
G1 X77.061 Y41.295 E2.01788
G1 X76.086 Y41.295 E2.10341
G1 X77.205 Y42.414 E2.24225
G1 X77.205 Y43.389 E2.32778
G1 X75.111 Y41.295 E2.58757
G1 X74.137 Y41.295 E2.67310
G1 X77.205 Y44.363 E3.05385
G1 X77.205 Y45.338 E3.13938
G1 X73.162 Y41.295 E3.64109
G1 X72.187 Y41.295 E3.72662
G1 X77.205 Y46.313 E4.34928
G1 X77.205 Y47.287 E4.43481
G1 X71.213 Y41.295 E5.17843
G1 X70.238 Y41.295 E5.26396
G1 X77.205 Y48.262 E6.12854
G1 X77.205 Y49.237 E6.21407
G1 X69.263 Y41.295 E7.19961
G1 X68.289 Y41.295 E7.28514
G1 X77.205 Y50.211 E8.39163
G1 X77.205 Y51.186 E8.47716
G1 X67.314 Y41.295 E9.70461
G1 X66.339 Y41.295 E9.79014
G1 X77.205 Y52.161 E11.13854
G1 X77.205 Y53.135 E11.22407
G1 X65.365 Y41.295 E12.69343
G1 X64.390 Y41.295 E12.77896
G1 X77.205 Y54.110 E14.36928
G1 X77.205 Y55.085 E14.45481
G1 X63.415 Y41.295 E16.16609
G1 X62.441 Y41.295 E16.25162
G1 X77.205 Y56.059 E18.08385
G1 X77.205 Y57.034 E18.16938
G1 X61.466 Y41.295 E20.12257
G1 X60.491 Y41.295 E20.20810
G1 X77.205 Y58.009 E22.28225
G1 X77.205 Y58.983 E22.36778
G1 X59.517 Y41.295 E24.56288
G1 X58.542 Y41.295 E24.64841
G1 X77.205 Y59.958 E26.96447
G1 X77.205 Y60.933 E27.05000
G1 X57.567 Y41.295 E29.48702
G1 X56.593 Y41.295 E29.57255
G1 X77.205 Y61.907 E32.13053
G1 X77.205 Y62.882 E32.21606
G1 X55.618 Y41.295 E34.89499
G1 X54.643 Y41.295 E34.98052
G1 X77.205 Y63.857 E37.78041
G1 X77.205 Y64.831 E37.86594
G1 X53.669 Y41.295 E40.78678
G1 X52.694 Y41.295 E40.87231
G1 X77.205 Y65.806 E43.91411
G1 X77.205 Y66.781 E43.99964
G1 X51.719 Y41.295 E47.16240
G1 X50.745 Y41.295 E47.24793
G1 X77.205 Y67.755 E50.53165
G1 X77.205 Y68.730 E50.61718
G1 X49.770 Y41.295 E54.02185
G1 X48.795 Y41.295 E54.10738
G1 X77.205 Y69.705 E57.63301
G1 X76.230 Y69.705 E57.71854
G1 X48.795 Y42.270 E61.12322
G1 X48.795 Y43.244 E61.20875
G1 X75.256 Y69.705 E64.49247
G1 X74.281 Y69.705 E64.57800
G1 X48.795 Y44.219 E67.74076
G1 X48.795 Y45.194 E67.82629
G1 X73.306 Y69.705 E70.86810
G1 X72.331 Y69.705 E70.95363
G1 X48.795 Y46.169 E73.87448
G1 X48.795 Y47.143 E73.96001
G1 X71.357 Y69.705 E76.75990
G1 X70.382 Y69.705 E76.84543
G1 X48.795 Y48.118 E79.52436
G1 X48.795 Y49.093 E79.60989
G1 X69.407 Y69.705 E82.16787
G1 X68.433 Y69.705 E82.25340
G1 X48.795 Y50.067 E84.69042
G1 X48.795 Y51.042 E84.77595
G1 X67.458 Y69.705 E87.09202
G1 X66.483 Y69.705 E87.17755
G1 X48.795 Y52.017 E89.37266
G1 X48.795 Y52.991 E89.45819
G1 X65.509 Y69.705 E91.53234
G1 X64.534 Y69.705 E91.61787
G1 X48.795 Y53.966 E93.57106
G1 X48.795 Y54.941 E93.65659
G1 X63.559 Y69.705 E95.48883
G1 X62.585 Y69.705 E95.57436
G1 X48.795 Y55.915 E97.28564
G1 X48.795 Y56.890 E97.37117
G1 X61.610 Y69.705 E98.96149
G1 X60.635 Y69.705 E99.04702
G1 X48.795 Y57.865 E100.51639
G1 X48.795 Y58.839 E100.60192
G1 X59.661 Y69.705 E101.95033
G1 X58.686 Y69.705 E102.03586
G1 X48.795 Y59.814 E103.26331
G1 X48.795 Y60.789 E103.34884
G1 X57.711 Y69.705 E104.45534
G1 X56.737 Y69.705 E104.54087
G1 X48.795 Y61.763 E105.52641
G1 X48.795 Y62.738 E105.61194
G1 X55.762 Y69.705 E106.47652
G1 X54.787 Y69.705 E106.56205
G1 X48.795 Y63.713 E107.30568
G1 X48.795 Y64.687 E107.39121
G1 X53.813 Y69.705 E108.01387
G1 X52.838 Y69.705 E108.09940
G1 X48.795 Y65.662 E108.60112
G1 X48.795 Y66.637 E108.68665
G1 X51.863 Y69.705 E109.06740
G1 X50.889 Y69.705 E109.15293
G1 X48.795 Y67.611 E109.41273
G1 X48.795 Y68.586 E109.49826
G1 X49.914 Y69.705 E109.63710
G1 X48.939 Y69.705 E109.72263
G1 X48.795 Y69.561 E109.74051
G1 Z0.550 F4200.000
G1 E107.74051 F2400.00000
G92 E0
G1 Z0.750 F4200.000
G1 X77.774 Y70.274 F4200.000
G1 Z0.550 F4200.000
G1 E2.00000 F2400.00000
G1 F2100
G1 X48.226 Y70.274 E3.98844
G1 X48.226 Y40.726 E5.97688
G1 X77.774 Y40.726 E7.96533
G1 X77.774 Y70.199 E9.94872
G1 X77.061 Y69.705 F4200.000
G1 F1200
G1 X77.205 Y69.561 E9.96660
G1 X77.205 Y68.586 E10.05213
G1 X76.086 Y69.705 E10.19097
G1 X75.111 Y69.705 E10.27650
G1 X77.205 Y67.611 E10.53629
G1 X77.205 Y66.637 E10.62182
G1 X74.137 Y69.705 E11.00257
G1 X73.162 Y69.705 E11.08810
G1 X77.205 Y65.662 E11.58981
G1 X77.205 Y64.687 E11.67534
G1 X72.187 Y69.705 E12.29800
G1 X71.213 Y69.705 E12.38353
G1 X77.205 Y63.713 E13.12715
G1 X77.205 Y62.738 E13.21268
G1 X70.238 Y69.705 E14.07726
G1 X69.263 Y69.705 E14.16279
G1 X77.205 Y61.763 E15.14833
G1 X77.205 Y60.789 E15.23386
G1 X68.289 Y69.705 E16.34035
G1 X67.314 Y69.705 E16.42588
G1 X77.205 Y59.814 E17.65333
G1 X77.205 Y58.839 E17.73886
G1 X66.339 Y69.705 E19.08726
G1 X65.365 Y69.705 E19.17279
G1 X77.205 Y57.865 E20.64216
G1 X77.205 Y56.890 E20.72769
G1 X64.390 Y69.705 E22.31801
G1 X63.415 Y69.705 E22.40354
G1 X77.205 Y55.915 E24.11481
G1 X77.205 Y54.941 E24.20034
G1 X62.441 Y69.705 E26.03258
G1 X61.466 Y69.705 E26.11810
G1 X77.205 Y53.966 E28.07130
G1 X77.205 Y52.991 E28.15683
G1 X60.491 Y69.705 E30.23097
G1 X59.517 Y69.705 E30.31650
G1 X77.205 Y52.017 E32.51161
G1 X77.205 Y51.042 E32.59714
G1 X58.542 Y69.705 E34.91320
G1 X57.567 Y69.705 E34.99873
G1 X77.205 Y50.067 E37.43574
G1 X77.205 Y49.093 E37.52127
G1 X56.593 Y69.705 E40.07925
G1 X55.618 Y69.705 E40.16478
G1 X77.205 Y48.118 E42.84371
G1 X77.205 Y47.143 E42.92924
G1 X54.643 Y69.705 E45.72913
G1 X53.669 Y69.705 E45.81466
G1 X77.205 Y46.169 E48.73550
G1 X77.205 Y45.194 E48.82103
G1 X52.694 Y69.705 E51.86284
G1 X51.719 Y69.705 E51.94837
G1 X77.205 Y44.219 E55.11113
G1 X77.205 Y43.245 E55.19665
G1 X50.745 Y69.705 E58.48037
G1 X49.770 Y69.705 E58.56590
G1 X77.205 Y42.270 E61.97057
G1 X77.205 Y41.295 E62.05610
G1 X48.795 Y69.705 E65.58173
G1 X48.795 Y68.730 E65.66726
G1 X76.230 Y41.295 E69.07194
G1 X75.256 Y41.295 E69.15747
G1 X48.795 Y67.756 E72.44119
G1 X48.795 Y66.781 E72.52672
G1 X74.281 Y41.295 E75.68948
G1 X73.306 Y41.295 E75.77501
G1 X48.795 Y65.806 E78.81682
G1 X48.795 Y64.831 E78.90235
G1 X72.331 Y41.295 E81.82320
G1 X71.357 Y41.295 E81.90873
G1 X48.795 Y63.857 E84.70862
G1 X48.795 Y62.882 E84.79415
G1 X70.382 Y41.295 E87.47309
G1 X69.407 Y41.295 E87.55862
G1 X48.795 Y61.907 E90.11659
G1 X48.795 Y60.933 E90.20212
G1 X68.433 Y41.295 E92.63915
G1 X67.458 Y41.295 E92.72468
G1 X48.795 Y59.958 E95.04074
G1 X48.795 Y58.983 E95.12627
G1 X66.483 Y41.295 E97.32138
G1 X65.509 Y41.295 E97.40691
G1 X48.795 Y58.009 E99.48106
G1 X48.795 Y57.034 E99.56659
G1 X64.534 Y41.295 E101.51979
G1 X63.559 Y41.295 E101.60531
G1 X48.795 Y56.059 E103.43755
G1 X48.795 Y55.085 E103.52308
G1 X62.585 Y41.295 E105.23436
G1 X61.610 Y41.295 E105.31989
G1 X48.795 Y54.110 E106.91022
G1 X48.795 Y53.135 E106.99575
G1 X60.635 Y41.295 E108.46511
G1 X59.661 Y41.295 E108.55064
G1 X48.795 Y52.161 E109.89905
G1 X48.795 Y51.186 E109.98458
G1 X58.686 Y41.295 E111.21204
G1 X57.711 Y41.295 E111.29757
G1 X48.795 Y50.211 E112.40406
G1 X48.795 Y49.237 E112.48959
G1 X56.737 Y41.295 E113.47513
G1 X55.762 Y41.295 E113.56066
G1 X48.795 Y48.262 E114.42524
G1 X48.795 Y47.287 E114.51077
G1 X54.787 Y41.295 E115.25440
G1 X53.813 Y41.295 E115.33993
G1 X48.795 Y46.313 E115.96260
G1 X48.795 Y45.338 E116.04813
G1 X52.838 Y41.295 E116.54984
G1 X51.863 Y41.295 E116.63537
G1 X48.795 Y44.363 E117.01612
G1 X48.795 Y43.389 E117.10165
G1 X50.889 Y41.295 E117.36145
G1 X49.914 Y41.295 E117.44698
G1 X48.795 Y42.414 E117.58582
G1 X48.795 Y41.439 E117.67135
G1 X48.939 Y41.295 E117.68924
G1 Z0.650 F4200.000
G1 E115.68924 F2400.00000
G92 E0
G1 Z0.850 F4200.000
G1 X77.774 Y70.274 F4200.000
G1 Z0.650 F4200.000
G1 E2.00000 F2400.00000
G1 F2100
G1 X48.226 Y70.274 E3.98844
G1 X48.226 Y40.726 E5.97688
G1 X77.774 Y40.726 E7.96533
G1 X77.774 Y70.199 E9.94872
G1 E7.94872 F2400.00000
G92 E0
G1 Z0.850 F4200.000
G1 X77.205 Y41.439 F4200.000
G1 Z0.650 F4200.000
G1 E2.00000 F2400.00000
G1 F1200
G1 X77.061 Y41.295 E2.01788
G1 X76.086 Y41.295 E2.10341
G1 X77.205 Y42.414 E2.24225
G1 X77.205 Y43.389 E2.32778
G1 X75.111 Y41.295 E2.58757
G1 X74.137 Y41.295 E2.67310
G1 X77.205 Y44.363 E3.05385
G1 X77.205 Y45.338 E3.13938
G1 X73.162 Y41.295 E3.64109
G1 X72.187 Y41.295 E3.72662
G1 X77.205 Y46.313 E4.34928
G1 X77.205 Y47.287 E4.43481
G1 X71.213 Y41.295 E5.17843
G1 X70.238 Y41.295 E5.26396
G1 X77.205 Y48.262 E6.12854
G1 X77.205 Y49.237 E6.21407
G1 X69.263 Y41.295 E7.19961
G1 X68.289 Y41.295 E7.28514
G1 X77.205 Y50.211 E8.39163
G1 X77.205 Y51.186 E8.47716
G1 X67.314 Y41.295 E9.70461
G1 X66.339 Y41.295 E9.79014
G1 X77.205 Y52.161 E11.13854
G1 X77.205 Y53.135 E11.22407
G1 X65.365 Y41.295 E12.69343
G1 X64.390 Y41.295 E12.77896
G1 X77.205 Y54.110 E14.36928
G1 X77.205 Y55.085 E14.45481
G1 X63.415 Y41.295 E16.16609
G1 X62.441 Y41.295 E16.25162
G1 X77.205 Y56.059 E18.08385
G1 X77.205 Y57.034 E18.16938
G1 X61.466 Y41.295 E20.12257
G1 X60.491 Y41.295 E20.20810
G1 X77.205 Y58.009 E22.28225
G1 X77.205 Y58.983 E22.36778
G1 X59.517 Y41.295 E24.56288
G1 X58.542 Y41.295 E24.64841
G1 X77.205 Y59.958 E26.96447
G1 X77.205 Y60.933 E27.05000
G1 X57.567 Y41.295 E29.48702
G1 X56.593 Y41.295 E29.57255
G1 X77.205 Y61.907 E32.13053
G1 X77.205 Y62.882 E32.21606
G1 X55.618 Y41.295 E34.89499
G1 X54.643 Y41.295 E34.98052
G1 X77.205 Y63.857 E37.78041
G1 X77.205 Y64.831 E37.86594
G1 X53.669 Y41.295 E40.78678
G1 X52.694 Y41.295 E40.87231
G1 X77.205 Y65.806 E43.91411
G1 X77.205 Y66.781 E43.99964
G1 X51.719 Y41.295 E47.16240
G1 X50.745 Y41.295 E47.24793
G1 X77.205 Y67.755 E50.53165
G1 X77.205 Y68.730 E50.61718
G1 X49.770 Y41.295 E54.02185
G1 X48.795 Y41.295 E54.10738
G1 X77.205 Y69.705 E57.63301
G1 X76.230 Y69.705 E57.71854
G1 X48.795 Y42.270 E61.12322
G1 X48.795 Y43.244 E61.20875
G1 X75.256 Y69.705 E64.49247
G1 X74.281 Y69.705 E64.57800
G1 X48.795 Y44.219 E67.74076
G1 X48.795 Y45.194 E67.82629
G1 X73.306 Y69.705 E70.86810
G1 X72.331 Y69.705 E70.95363
G1 X48.795 Y46.169 E73.87448
G1 X48.795 Y47.143 E73.96001
G1 X71.357 Y69.705 E76.75990
G1 X70.382 Y69.705 E76.84543
G1 X48.795 Y48.118 E79.52436
G1 X48.795 Y49.093 E79.60989
G1 X69.407 Y69.705 E82.16787
G1 X68.433 Y69.705 E82.25340
G1 X48.795 Y50.067 E84.69042
G1 X48.795 Y51.042 E84.77595
G1 X67.458 Y69.705 E87.09202
G1 X66.483 Y69.705 E87.17755
G1 X48.795 Y52.017 E89.37266
G1 X48.795 Y52.991 E89.45819
G1 X65.509 Y69.705 E91.53234
G1 X64.534 Y69.705 E91.61787
G1 X48.795 Y53.966 E93.57106
G1 X48.795 Y54.941 E93.65659
G1 X63.559 Y69.705 E95.48883
